X: 22
T: Baked Leg of Pork and Potatoes
%R: reel
B: "Twenty Four Country Dances with Figures for the Year 1810", Button & Whitaker, p.11 #2
F: http://www.vwml.org/browse/browse-collections-dance-tune-books/browse-button1810
Z: 2014 John Chambers <jc:trillian.mit.edu>
M: C
L: 1/8
K: G
% - - - - - - - - - - - - - - - - - - - - - - - - - - - - -
dc |\
Bdgd Bdgd | edcB A2dc |\
Bded cBAG | FGAB A2dc |\
Bdgd Bdgd |
ecAa gfge |\
fadf eg^ce | d2f2 d2 |] dc |\
Bdgf edcB | Acag fdef |
gdBd cABG | GFAF D2dc |\
Bded Aded | Bded Aded |\
cBcA BGAF | G2B2 G2 |]
% - - - - - - - - - - Dance description - - - - - - - - - -
%%begintext align
%%  Lead twice down the middle up again and allem.e
%% swing corners and foot it outsides :|:
%%endtext

%%sep 1 1 500
%%sep 1 1 500
